public/images/icons/menu-price/2.svg

<svg xmlns="http://www.w3.org/2000/svg" width="60" height="50" viewBox="0 0 60 50"><path fill="#FFF" d="M46.22 27.426c-.734-5.443-3.735-9.41-7.433-9.41h-17.27c-3.7 0-6.7 3.965-7.437 9.408-2.668 1.35-4.05 4.147-4.05 7.39 0 2.496.816 4.726 2.405 6.24v5.143h6.402V43.07h22.627v3.127h6.4v-5.144c1.588-1.514 2.407-3.743 2.407-6.24 0-3.24-1.383-6.04-4.05-7.387m-24.707-7.49h17.272c2.434 0 4.563 2.886 5.355 6.79-.396-.074-.817-.116-1.25-.138 0-.01.003-.016.003-.023 0-2.266-1.84-4.11-4.108-4.11-2.267 0-4.11 1.844-4.11 4.11H17.94c-.632 0-1.225.055-1.784.16.793-3.906 2.924-6.788 5.36-6.788m20.1 6.628H35.96c0-1.56 1.27-2.828 2.83-2.828 1.554 0 2.823 1.267 2.823 2.828M16.98 37.498c-1.48 0-2.682-1.2-2.682-2.683 0-1.48 1.202-2.683 2.68-2.683 1.483 0 2.685 1.2 2.685 2.683 0 1.487-1.2 2.683-2.684 2.683m20.958-.477h-15.58c-.353 0-.64-.287-.64-.64 0-.352.287-.64.64-.64h15.58c.353 0 .64.288.64.64 0 .353-.287.64-.64.64m0-2.346h-15.58c-.353 0-.64-.288-.64-.642 0-.353.287-.638.64-.638h15.58c.353 0 .64.287.64.638 0 .354-.287.642-.64.642m5.38 2.824c-1.478 0-2.682-1.2-2.682-2.683 0-1.48 1.2-2.683 2.683-2.683 1.477 0 2.682 1.2 2.682 2.683-.002 1.487-1.205 2.683-2.683 2.683m-3.087-26.77c.92 1.47 2.537 2.456 4.4 2.458 2.038 0 3.78-1.185 4.635-2.894h-3.46c-1.225 0-2.217-1.028-2.217-2.305 0-1.268.995-2.298 2.217-2.3h3.458c-.846-1.71-2.594-2.893-4.637-2.895-1.858 0-3.477.987-4.397 2.46H18.356c-.767-.883-1.882-1.45-3.14-1.45-2.314 0-4.19 1.874-4.188 4.188 0 2.31 1.874 4.183 4.184 4.186 1.26 0 2.375-.572 3.145-1.447h21.878zM14.113 9.9L13.01 7.993l1.104-1.907 2.2-.003 1.104 1.91L16.316 9.9h-2.203z"/></svg>

<?xml version="1.0" encoding="utf-8"?>
<!-- Generator: Adobe Illustrator 16.0.0, SVG Export Plug-In . SVG Version: 6.00 Build 0)  -->
<!DOCTYPE svg PUBLIC "-//W3C//DTD SVG 1.1//EN" "http://www.w3.org/Graphics/SVG/1.1/DTD/svg11.dtd">
<svg version="1.1" id="Layer_1" xmlns="http://www.w3.org/2000/svg" xmlns:xlink="http://www.w3.org/1999/xlink" x="0px" y="0px"
	 width="60px" height="50px" viewBox="0 0 60 50" enable-background="new 0 0 60 50" xml:space="preserve">
<path fill="#FFFFFF" d="M46.221,27.426c-0.735-5.443-3.736-9.41-7.434-9.41H21.516c-3.7,0-6.699,3.965-7.436,9.408
	c-2.668,1.35-4.051,4.147-4.051,7.39c0,2.496,0.817,4.726,2.406,6.239v5.144h6.402v-3.127h22.627v3.127h6.401v-5.144
	c1.587-1.514,2.406-3.743,2.406-6.239C50.271,31.573,48.887,28.773,46.221,27.426 M21.513,19.937h17.272
	c2.434,0,4.563,2.885,5.355,6.788c-0.396-0.073-0.817-0.115-1.25-0.137c0-0.01,0.003-0.016,0.003-0.023
	c0-2.266-1.841-4.109-4.108-4.109c-2.267,0-4.109,1.843-4.109,4.109H17.938c-0.632,0-1.225,0.055-1.784,0.159
	C16.947,22.819,19.078,19.937,21.513,19.937 M41.613,26.565h-5.652c0-1.561,1.269-2.828,2.828-2.828
	C40.344,23.738,41.613,25.004,41.613,26.565 M16.979,37.498c-1.478,0-2.681-1.2-2.681-2.683c0-1.479,1.202-2.683,2.681-2.683
	c1.482,0,2.684,1.201,2.684,2.683C19.663,36.302,18.462,37.498,16.979,37.498 M37.938,37.021H22.359c-0.354,0-0.64-0.288-0.64-0.641
	c0-0.352,0.286-0.639,0.64-0.639h15.578c0.354,0,0.64,0.287,0.64,0.639C38.578,36.733,38.291,37.021,37.938,37.021 M37.938,34.674
	H22.359c-0.354,0-0.64-0.288-0.64-0.642c0-0.353,0.286-0.638,0.64-0.638h15.578c0.354,0,0.64,0.287,0.64,0.638
	C38.578,34.386,38.291,34.674,37.938,34.674 M43.319,37.498c-1.479,0-2.683-1.2-2.683-2.683c0-1.479,1.201-2.683,2.683-2.683
	c1.478,0,2.683,1.201,2.683,2.683C46,36.302,44.797,37.498,43.319,37.498 M40.233,10.729c0.919,1.47,2.537,2.455,4.399,2.457
	c2.039,0,3.782-1.185,4.636-2.894l-3.459-0.001c-1.226,0.002-2.218-1.027-2.218-2.304c0-1.268,0.994-2.298,2.216-2.301h3.458
	c-0.846-1.709-2.594-2.892-4.637-2.894c-1.858-0.001-3.477,0.987-4.397,2.46H18.355c-0.767-0.883-1.882-1.449-3.141-1.449
	c-2.313-0.001-4.188,1.873-4.187,4.187c0,2.309,1.874,4.183,4.184,4.186c1.259,0,2.374-0.572,3.144-1.447H40.233z M14.113,9.9
	L13.01,7.993l1.104-1.907l2.201-0.003l1.103,1.91L16.316,9.9H14.113z"/>
</svg>
